icons/git-pull-request-closed-24.svg

<svg xmlns="http://www.w3.org/2000/svg" width="24" height="24" viewBox="0 0 24 24"><path d="M22.266 2.711a.75.75 0 10-1.061-1.06l-1.983 1.983-1.984-1.983a.75.75 0 10-1.06 1.06l1.983 1.983-1.983 1.984a.75.75 0 001.06 1.06l1.984-1.983 1.983 1.983a.75.75 0 001.06-1.06l-1.983-1.984 1.984-1.983zM4.75 1.5a3.25 3.25 0 01.745 6.414A.827.827 0 015.5 8v8a.827.827 0 01-.005.086A3.25 3.25 0 014.75 22.5a3.25 3.25 0 01-.745-6.414A.827.827 0 014 16V8c0-.029.002-.057.005-.086A3.25 3.25 0 014.75 1.5zM16 19.25a3.252 3.252 0 012.5-3.163V9.625a.75.75 0 011.5 0v6.462a3.252 3.252 0 01-.75 6.413A3.25 3.25 0 0116 19.25zM3 4.75a1.75 1.75 0 103.501-.001A1.75 1.75 0 003 4.75zm0 14.5a1.75 1.75 0 103.501-.001A1.75 1.75 0 003 19.25zm16.25-1.75a1.75 1.75 0 10.001 3.501 1.75 1.75 0 00-.001-3.501z"/></svg>

<svg xmlns="http://www.w3.org/2000/svg" width="24" height="24" viewBox="0 0 24 24">
  <defs/>
  <path d="M22.266,2.711 A0.75 0.75 0 1 0 21.205,1.651 L19.222,3.634 L17.238,1.651 A0.75 0.75 0 1 0 16.178,2.711 L18.161,4.694 L16.178,6.678 A0.75 0.75 0 0 0 17.238,7.738 L19.222,5.755 L21.205,7.738 A0.75 0.75 0 0 0 22.265,6.678 L20.282,4.694 L22.266,2.711 Z"/>
  <path d="M4.75,1.5 C6.398,1.503 7.783,2.739 7.973,4.376 C8.163,6.013 7.098,7.533 5.495,7.914 C5.498,7.943 5.5,7.971 5.5,8 L5.5,16 C5.5,16.029 5.498,16.057 5.495,16.086 C7.102,16.463 8.171,17.985 7.981,19.625 C7.79,21.265 6.401,22.501 4.75,22.5 C3.102,22.497 1.717,21.261 1.527,19.624 C1.337,17.987 2.402,16.467 4.005,16.086 C4.002,16.057 4,16.029 4,16 L4,8 C4,7.971 4.002,7.943 4.005,7.914 C2.398,7.537 1.329,6.015 1.519,4.375 C1.71,2.735 3.099,1.499 4.75,1.5 Z M16,19.25 C16,17.744 17.035,16.435 18.5,16.087 L18.5,9.625 C18.5,9.211 18.836,8.875 19.25,8.875 C19.664,8.875 20,9.211 20,9.625 L20,16.087 C21.602,16.47 22.665,17.99 22.474,19.627 C22.282,21.263 20.897,22.497 19.25,22.5 C17.455,22.5 16,21.045 16,19.25 Z M3,4.75 C3,5.716 3.784,6.5 4.75,6.5 C5.716,6.5 6.5,5.716 6.5,4.75 C6.5,3.784 5.716,3 4.75,3 C3.784,3 3,3.784 3,4.75 Z M3,19.25 C3,20.216 3.784,21 4.75,21 C5.716,21 6.5,20.216 6.5,19.25 C6.5,18.284 5.716,17.5 4.75,17.5 C3.784,17.5 3,18.284 3,19.25 Z M19.25,17.5 C18.284,17.5 17.5,18.284 17.5,19.25 C17.5,20.216 18.284,21 19.25,21 C20.216,21 21,20.216 21,19.25 C21,18.284 20.216,17.5 19.25,17.5 Z"/>
</svg>
